assets/svg/unigrade_logo.svg

<svg height="1024" viewBox="0 0 1024 1024" width="1024" xmlns="http://www.w3.org/2000/svg"><path d="m0 0h1024v1024h-1024z" fill="#fff"/><text font-family="AvenirLTStd-Black, Avenir LT Std" font-size="200" font-weight="800" stroke="#707070" transform="translate(62 878)"><tspan x="0" y="0">UniGrade</tspan></text><path d="m130.773 333.5v129.272l226.227 123.455 226.227-123.455v-129.272l-226.227 123.455zm226.227-329-355.5 193.909 355.5 193.909 290.864-158.682v223.319h64.636v-258.546z" stroke="#000" transform="translate(155.5 82.5)"/><g stroke-width="4"><path d="m-1167.494-842.579v-137.568l222.994 127.947v130.658z" fill="#a7ffad" stroke="#a7ffad" transform="translate(1453.118 1390.273)"/><path d="m-939.762-842.579v-137.568l-227.732 127.947v130.658z" fill="#6af" stroke="#6af" transform="translate(1679.994 1390.273)"/></g></svg>

<svg id="Component_12_2" data-name="Component 12 – 2" xmlns="http://www.w3.org/2000/svg" width="1024" height="1024" viewBox="0 0 1024 1024">
  <rect id="Rectangle_125" data-name="Rectangle 125" width="1024" height="1024" fill="#fff"/>
  <text id="UniGrade" transform="translate(62 878)" stroke="#707070" stroke-width="1" font-size="200" font-family="AvenirLTStd-Black, Avenir LT Std" font-weight="800"><tspan x="0" y="0">UniGrade</tspan></text>
  <path id="Icon_material-school" data-name="Icon material-school" d="M130.773,333.5V462.772L357,586.227,583.227,462.772V333.5L357,456.955ZM357,4.5,1.5,198.409,357,392.318,647.864,233.636V456.955H712.5V198.409Z" transform="translate(155.5 82.5)" stroke="#000" stroke-width="1"/>
  <path id="Path_16" data-name="Path 16" d="M-1167.494-842.579V-980.147L-944.5-852.2v130.658Z" transform="translate(1453.118 1390.273)" fill="#a7ffad" stroke="#a7ffad" stroke-width="4"/>
  <path id="Path_17" data-name="Path 17" d="M-939.762-842.579V-980.147L-1167.494-852.2v130.658Z" transform="translate(1679.994 1390.273)" fill="#6af" stroke="#6af" stroke-width="4"/>
</svg>
